!!!COM:	Josquin des Prez
!!!CDT:	~1450-1521/08/27
!!!OPR:	Missa Fortuna desperata
!!!ONM:	4
!!!OTL:	Sanctus
!!!AGN:	Mass; Sanctus
!!!SCT:	NJE 8.2
!!!SCA:	New Josquin Edition 8.2
!!!voices: 4
!!!voices-OPR:	4
**kern	**kern	**kern	**kern
*staff4	*staff3	*staff2	*staff1
*Ivox	*Ivox	*Ivox	*Ivox
*I"Bassus	*I"Tenor	*I"Altus	*I"Superius
*I'B	*I'T	*I'A	*I'S
*>[A,B,C,D,C]	*>[A,B,C,D,C]	*>[A,B,C,D,C]	*>[A,B,C,D,C]
*>Sanctus[A]	*>Sanctus[A]	*>Sanctus[A]	*>Sanctus[A]
*>Pleni[B]	*>Pleni[B]	*>Pleni[B]	*>Pleni[B]
*>Osanna[C]	*>Osanna[C]	*>Osanna[C]	*>Osanna[C]
*>Benedictus[D]	*>Benedictus[D]	*>Benedictus[D]	*>Benedictus[D]
*>A	*>A	*>A	*>A
*clefF4	*clefGv2	*clefGv2	*clefG2
*k[]	*k[]	*k[]	*k[]
*M2/1	*M2/1	*M2/1	*M2/1
*met(C|)	*met(C|)	*met(C|)	*met(C|)
=1-	=1-	=1-	=1-
!!section: Sanctus
!!!OMD: Sanctus
!	!	!LO:TX:Z=8:t=Contratenor In diapente [first notated pitch&colon; f].	!
0F	0F	0r	0r
=2	=2	=2	=2
1D	1F	0r	0r
1C	1G	.	.
=3	=3	=3	=3
0F	0A	0r	1r
.	.	.	[1f
=4	=4	=4	=4
0C	0G	0r	2f/]
.	.	.	4e/
.	.	.	4d/
.	.	.	1e
=5	=5	=5	=5
1r	0F	0c	0f
[1c	.	.	.
=6	=6	=6	=6
2c\]	1c	1A	0r
4B\	.	.	.
4A\	.	.	.
1B	1d	1G	.
=7	=7	=7	=7
1c	2.e\	0c	1r
.	4d\	.	.
2.C/	4e\	.	[1cc
.	4f\	.	.
.	[2g\	.	.
4D\	.	.	.
=8	=8	=8	=8
2.E\	2g\]	0G	2cc\]
.	4f\	.	4b\
4F\	4e\	.	4a/
1G	1d	.	1b
=9	=9	=9	=9
[0C	[0c	1.g	0cc
.	.	2f\	.
=10	=10	=10	=10
0C]	0c_	2e\	0r
.	.	2d\	.
.	.	2c\	.
.	.	2B\	.
=11	=11	=11	=11
0F	0c]	0A	1r
.	.	.	[1f
=12	=12	=12	=12
0G	1r	0B	2f/]
.	.	.	4e/
.	.	.	4d/
.	1B	.	1e
=13	=13	=13	=13
0F	0c	[0A	0f
=14	=14	=14	=14
[0D	1.d	1A]	0r
.	.	[1d	.
.	2c\	.	.
=15	=15	=15	=15
0D]	2A/	0d]	1.f
.	2F/	.	.
.	2A/	.	.
.	2B\	.	4e/
.	.	.	4d/
=16	=16	=16	=16
1C	2c\	1G	1e
.	2G/	.	.
1BB-i	1B-i	1d	1f
=17	=17	=17	=17
0F	2A/	1c	1r
.	2F/	.	.
.	1f	1A	[1cc
=18	=18	=18	=18
1C	1e	0G	2cc\]
.	.	.	4b\
.	.	.	4a/
[1G	1d	.	[1b
=19	=19	=19	=19
2G\]	0e	1.g	2b\]
4F\	.	.	2cc\
4E\	.	.	.
2G\	.	.	2b\
2C/	.	4f\	[2cc\
.	.	4g\	.
=20	=20	=20	=20
1F	0d	1a	2cc\]
.	.	.	4b\
.	.	.	4a/
1G	.	1g	1b
=21	=21	=21	=21
1C	1.c	0e	[0cc
[1c	.	.	.
.	2d\	.	.
=22	=22	=22	=22
2c\]	1e	0c	0cc]
2B\	.	.	.
1A	1f	.	.
=23	=23	=23	=23
0G	0g	0d	0r
=24	=24	=24	=24
1F	1.c	1f	0r
[1c	.	1e	.
.	2d\	.	.
=25	=25	=25	=25
2c\]	1e	0c	1r
2B\	.	.	.
1A	1f	.	1cc
=26	=26	=26	=26
1G	1g	1r	1b
2.C/	1e	1c	[1cc
4D\	.	.	.
=27	=27	=27	=27
2.E\	2.g\	0G	2cc\]
.	.	.	4b\
4F\	4f\	.	4a/
2G\	2d\	.	2b\
[2C/	2c\	.	[2cc\
=28	=28	=28	=28
4C/]	1e	1G	2cc\]
4D\	.	.	.
4E\	.	.	4b\
4F\	.	.	4a/
1G	1d	1G	1b
=29	=29	=29	=29
2r	1c	0A	1cc
2C/	.	.	.
1D	1A	.	2r
.	.	.	[2f/
=30	=30	=30	=30
1BB-i	2.B-\	1d	2f/]
.	.	.	4e/
.	4A/	.	4d/
1C	1G	1c	1e
=31	=31	=31	=31
1.D	[0F	[0B-	1f
.	.	.	2r
2BB-i/	.	.	[2f/
=32	=32	=32	=32
1D	1F]	1B-]	2f/]
.	.	.	4e/
.	.	.	4d/
1C	1G	1c	1e
=33	=33	=33	=33
1F	2A/	0c	1f
.	2F/	.	.
1A	1c	.	2r
.	.	.	[2cc\
=34	=34	=34	=34
0G	2.d\	0g	2cc\]
.	.	.	4b\
.	4c\	.	4a/
.	2d\	.	1b
.	[2e\	.	.
=35	=35	=35	=35
1A	4e\]	1.c	0cc
.	4d\	.	.
.	2e\	.	.
1F	1f	.	.
.	.	2d\	.
=36	=36	=36	=36
1.c	0g	1e	0r
.	.	1c	.
2B\	.	.	.
=37	=37	=37	=37
1A	1c	1f	0r
2.G\	2.d\	2g\	.
.	.	[2d\	.
4F\	4e\	.	.
=38	=38	=38	=38
2D\	2f\	2d\]	0r
2C/	1g	2e\	.
2E\	.	1c	.
2F\	4f\	.	.
.	4e\	.	.
=39	=39	=39	=39
0G	2d\	0B-	0r
.	2c\	.	.
.	1d	.	.
=40	=40	=40	=40
1C	1e	1c	1.cc
1F	1f	1A	.
.	.	.	4b\
.	.	.	4a/
=41	=41	=41	=41
1E	1g	2e\	1b
.	.	2d\	.
[1A	2.e\	2c\	1cc
.	.	2B\	.
.	4d\	.	.
=42	=42	=42	=42
2A\]	2e\	0A	2r
4G\	2f\	.	1cc
8F\L	.	.	.
8E\J	.	.	.
1F	2c\	.	.
.	2d\	.	4b\
.	.	.	4a/
=43	=43	=43	=43
1E	1G	[0e	1b
1AA	1A	.	1cc
=44	=44	=44	=44
1.E	2G/	0e]	1r
.	1g	.	.
.	.	.	[1cc
4D\	4f\	.	.
4C/	4e\	.	.
=45	=45	=45	=45
2E\	2g\	2e\	2cc\]
2F\	2f\	2d\	4b\
.	.	.	4a/
1G	1d	1B	1b
=46	=46	=46	=46
1r	1c	0A	1cc
[1A	[1e	.	2r
.	.	.	[2cc\
=47	=47	=47	=47
1A]	2e\]	1r	2cc\]
.	2f\	.	4b\
.	.	.	4a/
1E	1g	1e	2b\
.	.	.	[2cc\
=48	=48	=48	=48
1F	2c\	1A	2cc\]
.	2f\	.	4b\
.	.	.	4a/
2G\	2d\	[1G	2b\
2E\	[2g\	.	2cc\
=49	=49	=49	=49
2G\	4g\]	1G]	2b\
.	4f\	.	.
2C/	4e\	.	1cc
.	4d\	.	.
1F	2c\	1A	.
.	2d\	.	4b\
.	.	.	4a/
=50	=50	=50	=50
2E\	2G/	0e	2b\
2AA/	2A/	.	1cc
1E	1G	.	.
.	.	.	2b\
=51	=51	=51	=51
2r	2.c\	[0A	1cc
2.F\	.	.	.
.	4B\	.	.
.	2c\	.	2r
4E\	.	.	.
[2D\	2d\	.	[2f/
=52	=52	=52	=52
2D\]	2.A/	0A]	2f/]
4C/	.	.	4e/
4BB/	4B\	.	4d/
2AA/	2c\	.	2e/
2D\	2F/	.	[2f/
=53	=53	=53	=53
1C	1G	0c	2f/]
.	.	.	4e/
.	.	.	4d/
2.c\	1C	.	1e
4B\	.	.	.
=54	=54	=54	=54
4A\	1.c	0F	1f
4G\	.	.	.
1F	.	.	.
.	.	.	[1cc
4E\	2d\	.	.
4D\	.	.	.
=55	=55	=55	=55
1C	2e\	0G	2cc\]
.	2c\	.	4b\
.	.	.	4a/
1G	1d	.	1b
=56	=56	=56	=56
2r	1.c	1c	1cc
2C/	.	.	.
1D	.	1A	[1f
.	4B-i\	.	.
.	4A/	.	.
=57	=57	=57	=57
1BB-	1B-i	1d	2f/]
.	.	.	4e/
.	.	.	4d/
1C	1G	1c	1e
=58	=58	=58	=58
2r	2F/	1.d	1f
1BB-i	1f	.	.
.	.	.	1r
2C/	2e\	2e\	.
=59	=59	=59	=59
1G	2d\	1B	1r
.	2g\	.	.
2.C/	2.e\	1c	[1cc
4D\	4f\	.	.
=60	=60	=60	=60
2.E\	2g\	0G	2cc\]
.	2e\	.	4b\
4F\	.	.	4a/
1G	1d	.	1b
=61	=61	=61	=61
1A	2r	[0cl	1cc
.	2.c\	.	.
1F	.	.	2r
.	4B\	.	.
.	[2A/	.	[2f/
=62	=62	=62	=62
[0C	2A/]	0c_	2f/]
.	4G/	.	4e/
.	4F/	.	4d/
.	2G/	.	[1e
.	2A/	.	.
=63	=63	=63	=63
0C_	2G/	0c_	2e/]
.	2A/	.	2f/
.	2G/	.	2e/
.	[2A/	.	[2f/
=64	=64	=64	=64
0C]	4A/]	0c_	2f/]
.	4G/	.	.
.	4A/	.	4e/
.	4F/	.	4d/
.	1G	.	1e
=65	=65	=65	=65
0Fl	0Fl	0c]	0fl
!!LO:LB:i:g=z
=66||	=66||	=66||	=66||
*>B	*>B	*>B	*>B
*clefF4	*clefGv2	*clefGv2	*clefG2
*k[]	*k[]	*k[]	*k[]
*M2/1	*M2/1	*M2/1	*M2/1
*met(C|)	*met(C|)	*met(C|)	*met(C|)
!!!OMD: Pleni sunt celi
!!section: Pleni sunt celi
1C	0r	0r	0r
2C/	.	.	.
2D\	.	.	.
=67	=67	=67	=67
2E\	0r	0r	0r
2F\	.	.	.
2G\	.	.	.
[2A\	.	.	.
=68	=68	=68	=68
2A\]	1F	0r	0r
4G\	.	.	.
4F\	.	.	.
2A\	2F/	.	.
2B\	2G/	.	.
=69	=69	=69	=69
1c	2A/	0r	0r
.	2B\	.	.
1F	2c\	.	.
.	[2d\	.	.
=70	=70	=70	=70
1.B-i	2d\]	0r	0r
.	4c\	.	.
.	4B-i\	.	.
.	2d\	.	.
2A\	2e\	.	.
=71	=71	=71	=71
1F	1f	0r	0r
1G	1B-	.	.
=72	=72	=72	=72
1C	1.e-	0r	0r
[1G	.	.	.
.	2d\	.	.
=73	=73	=73	=73
2G\]	1B-i	0r	0r
4F\	.	.	.
4G\	.	.	.
2A\	[1c	.	.
[2F\	.	.	.
=74	=74	=74	=74
2F\]	1c]	0r	1c
4E\	.	.	.
4D\	.	.	.
2.F\	1F	.	2c/
.	.	.	2d/
4E\	.	.	.
=75	=75	=75	=75
0C	0c	0r	2e/
.	.	.	2f/
.	.	.	2g/
.	.	.	[2a/
=76	=76	=76	=76
0r	0d	0r	2a/]
.	.	.	4g/
.	.	.	4f/
.	.	.	2a/
.	.	.	2b\
=77	=77	=77	=77
0r	1c	0r	1cc
.	1d	.	1f
=78	=78	=78	=78
0r	2G/	0r	1.b-
.	1d	.	.
.	2c\	.	2a/
=79	=79	=79	=79
0r	2d\	0r	1f
.	1f	.	.
.	.	.	1g
.	4e\	.	.
.	4d\	.	.
=80	=80	=80	=80
2r	[0e	0r	1c
2.C/	.	.	.
.	.	.	1r
4D\	.	.	.
4E\	.	.	.
4F\	.	.	.
=81	=81	=81	=81
2G\	0e]	0r	0r
1A	.	.	.
2G\	.	.	.
=82	=82	=82	=82
2A\	1c	0r	0r
1c	.	.	.
.	1d	.	.
2B\	.	.	.
=83	=83	=83	=83
0c	1e	0r	2r
.	.	.	2.c/
.	2.c\	.	.
.	.	.	4d/
.	.	.	4e/
.	4d\	.	4f/
=84	=84	=84	=84
0r	2e\	0r	2g/
.	1f	.	1a
.	2e\	.	2g/
=85	=85	=85	=85
0r	1c	0r	2a/
.	.	.	1cc
.	1d	.	.
.	.	.	2b\
=86	=86	=86	=86
2r	0c	0r	1cc
2.C/	.	.	.
.	.	.	1r
4D\	.	.	.
4E\	.	.	.
4F\	.	.	.
=87	=87	=87	=87
2G\	0r	0r	2r
2.A\	.	.	2.c/
4B\	.	.	4d/
[2c\	.	.	4e/
.	.	.	4f/
=88	=88	=88	=88
2c\]	0r	0r	2g/
4B\	.	.	1a
4A\	.	.	.
1B	.	.	.
.	.	.	2g#i/
=89	=89	=89	=89
0A	2r	0r	1a
.	2.F/	.	.
.	.	.	1r
.	4G/	.	.
.	4A/	.	.
.	4B\	.	.
=90	=90	=90	=90
0r	2c\	0r	2r
.	2.d\	.	2.f/
.	4e\	.	4g/
.	[2f\	.	4a/
.	.	.	4b\
=91	=91	=91	=91
0r	2f\]	0r	2cc\
.	4e\	.	1dd
.	4d\	.	.
.	1e	.	.
.	.	.	2cc#i\
=92	=92	=92	=92
0r	1.d	0r	2dd\
.	.	.	2a/
.	.	.	2b\
.	2c\	.	[2cc\
=93	=93	=93	=93
0r	1.d	0r	4cc\]
.	.	.	4f/
.	.	.	1f
.	2c\	.	2e/
=94	=94	=94	=94
0r	2d\	0r	1f
.	1f	.	.
.	.	.	1g
.	2e\	.	.
=95	=95	=95	=95
1r	1.f	0r	0r
[1F	.	.	.
.	4e\	.	.
.	4d\	.	.
=96	=96	=96	=96
2F\]	2f\	0r	0r
2G\	2e\	.	.
1A	1c	.	.
=97	=97	=97	=97
1.B-i	0r	0r	0f
4A\	.	.	.
4G\	.	.	.
=98	=98	=98	=98
2B-i\	1r	0r	1g
2A\	.	.	.
1F	1c	.	[1a
=99	=99	=99	=99
0r	1.d	0r	2a/]
.	.	.	4g/
.	.	.	4f/
.	.	.	2b-i\
.	4c\	.	2a/
.	4B-i\	.	.
=100	=100	=100	=100
1r	2d\	0r	1f
.	2c\	.	.
1F	1A	.	1r
=101	=101	=101	=101
1.G	2.G/	0r	0r
.	4A/	.	.
.	4B-i\	.	.
.	4c\	.	.
4F\	[2d\	.	.
4E\	.	.	.
=102	=102	=102	=102
2G\	4d\]	0r	0r
.	4B-i\	.	.
2F\	2c\	.	.
1D	2d\	.	.
.	2f\	.	.
=103	=103	=103	=103
1C	2e\	0r	2.g/
.	2.c\	.	.
.	.	.	4f/
1r	.	.	2g/
.	4B\	.	.
.	2c\	.	2a/
=104	=104	=104	=104
0r	2d\	0r	2f/
.	2B\	.	1g
.	1c	.	.
.	.	.	[2c/
=105	=105	=105	=105
2.F\	0r	0r	4c/]
.	.	.	4B/
.	.	.	2c/
4E\	.	.	.
2F\	.	.	2d/
2G\	.	.	2B/
=106	=106	=106	=106
2E\	1r	0r	1c
2F\	.	.	.
2r	2.c\	.	1r
[2F\	.	.	.
.	4B\	.	.
=107	=107	=107	=107
4F\]	2c\	0r	0r
4E\	.	.	.
2F\	2d\	.	.
2G\	2B\	.	.
2E\	[2c\	.	.
=108	=108	=108	=108
1F	2c\]	0r	2.cc\
.	2.f\	.	.
.	.	.	4b\
1r	.	.	2cc\
.	4e\	.	.
.	2f\	.	2dd\
=109	=109	=109	=109
0r	2g\	0r	2b\
.	2e\	.	1cc
.	1f	.	.
.	.	.	[2f/
=110	=110	=110	=110
0r	2.B-\	0r	4f/]
.	.	.	4e/
.	.	.	2f/
.	4A/	.	.
.	2B-i\	.	2g/
.	2c\	.	2e/
=111	=111	=111	=111
0r	2A/	0r	2f/
.	2B-i\	.	2g/
.	2c\	.	2a/
.	[2d\	.	[2b-i\
=112	=112	=112	=112
1r	4d\]	0r	4b-\]
.	4c\	.	4a/
.	4B-i\	.	4g/
.	4A/	.	4f/
1C	2G/	.	1e
.	[2A/	.	.
=113	=113	=113	=113
1D	2A/]	0r	0r
.	2B\	.	.
2C/	2c\	.	.
2F\	2d\	.	.
=114	=114	=114	=114
2G\	2B\	0r	0r
2.A\	2.c\	.	.
4B\	4B\	.	.
[2c\	4A/	.	.
.	4G/	.	.
=115	=115	=115	=115
4c\]	1F	0r	1cc
4B\	.	.	.
4A\	.	.	.
4G\	.	.	.
2B-i\	1r	.	2dd\
[2A\	.	.	[2cc\
=116	=116	=116	=116
4A\]	1F	0r	2cc\]
4G\	.	.	.
1F	.	.	4b-i\
.	.	.	4a/
.	1G	.	1b-i
2E\	.	.	.
=117	=117	=117	=117
2F\	2F/	0r	1a
2A\	2c\	.	.
2B\	2d\	.	1g
[2c\	[2e\	.	.
=118	=118	=118	=118
2c\]	4e\]	0r	0r
.	4f\	.	.
4B\	2.g\	.	.
4A\	.	.	.
1G	.	.	.
.	4f\	.	.
.	4e\	.	.
.	4d\	.	.
=119	=119	=119	=119
2A\	2f\	0r	1r
2G\	2.e\	.	.
1A	.	.	1c
.	4d\	.	.
.	[2c\	.	.
=120	=120	=120	=120
1G	2c\]	0r	1d
.	2B\	.	.
1r	2c\	.	2c/
.	2d\	.	2f/
=121	=121	=121	=121
2C/	2e\	0r	2g/
2.F\	2f\	.	2.a/
.	2r	.	.
4G\	.	.	4b\
4A\	[2F/	.	[2cc\
4B\	.	.	.
=122	=122	=122	=122
2c\	4F/]	0r	4cc\]
.	4G/	.	4b\
1F	4A/	.	4a/
.	4B\	.	4g/
.	2c\	.	4a/
.	.	.	4g/
4E\	2d\	.	[2b-i\
4D\	.	.	.
=123	=123	=123	=123
1.E	2.G/	0r	4b-\]
.	.	.	4a/
.	.	.	4g/
.	4A/	.	4f/
.	2B-i\	.	4g/
.	.	.	4f/
2C/	2c\	.	[2a/
=124	=124	=124	=124
1D	1F	0r	4a/]
.	.	.	4g/
.	.	.	1f
1C	1G	.	.
.	.	.	2e/
=125	=125	=125	=125
1r	0Fl	0r	0fl
1Fl	.	.	.
!!LO:LB:i:g=z
=126||	=126||	=126||	=126||
*>C	*>C	*>C	*>C
*clefF4	*clefGv2	*clefGv2	*clefG2
*k[]	*k[]	*k[]	*k[]
*	*	*rscale:2	*
*M2/1	*M2/1	*M2/1	*M2/1
*met(C|)	*met(C|)	*met(C|)	*met(C|)
!!!OMD: Osanna
!!section: Osanna
!	!	!LO:TX:Z=6:t=Canon&colon; Decrescit in diapente	!
1r	0r	0r	1f
1F	.	.	2d/
.	.	.	2c/
=127	=127	=127	=127
2D\	0r	0r	2.f/
2C/	.	.	.
.	.	.	4e/
2.F\	.	.	2c/
.	.	.	2d/
4E\	.	.	.
=128	=128	=128	=128
[0C	1r	1c	0e
.	1c	2A	.
.	.	2G	.
=129	=129	=129	=129
0C]	2A/	1c	2r
.	2G/	.	2.e/
.	2.c\	1G	.
.	.	.	4f/
.	.	.	4g/
.	4B\	.	4a/
=130	=130	=130	=130
0r	2G/	2.g	2b\
.	2.g\	.	2e/
.	.	4f\	.
.	.	4e\	2b\
.	4f\	4d\	.
.	[2e\	4c\	[2cc\
.	.	4B\	.
=131	=131	=131	=131
0r	2e\]	1A	4cc\]
.	.	.	4b\
.	4d\	.	1a
.	4c\	.	.
.	2.d\	1B	.
.	.	.	2g#i/
.	4e\	.	.
=132	=132	=132	=132
2.D\	1f	1.A	1a
4E\	.	.	.
2F\	1r	.	1r
2G\	.	[2d	.
=133	=133	=133	=133
2D\	1r	1d]	0r
2.G\	.	.	.
.	2r	2G	.
4A\	.	.	.
2B\	2d\	2d	.
=134	=134	=134	=134
2c\	2e\	2c	2r
2F\	2f\	2A	2a/
2G\	2d\	1G	2b\
[2C/	[2e\	.	[2g/
=135	=135	=135	=135
4C/]	4e\]	2.g	4g/]
4D\	4d\	.	4f/
2E\	1c	.	2e/
.	.	8f\	.
.	.	8g\	.
2F\	.	2a	1d
2G\	2B\	2g	.
=136	=136	=136	=136
0A	1c	1e	1c
.	1A	1c	1cc
=137	=137	=137	=137
1G	1B	1d	1b
[1F	1c	2f	[1a
.	.	2e	.
=138	=138	=138	=138
2F\]	1A	1c	2a/]
2E\	.	.	4g/
.	.	.	4f/
2.C/	1c	2r	2.e/
.	.	2c	.
4D\	.	.	4f/
=139	=139	=139	=139
4E\	1B	1G	4g/
4F\	.	.	4a/
2.E\	.	.	2.g/
.	1e	2G	.
4D\	.	.	4f/
4C/	.	2G	4e/
4BB/	.	.	4d/
=140	=140	=140	=140
2AA/	0r	1A	2c/
2.D\	.	.	2.f/
.	.	2d	.
4E\	.	.	4g/
2F\	.	2c	2a/
=141	=141	=141	=141
1.G	2r	1.B-	1d
.	1d	.	.
.	.	.	1g
2C/	2e\	2c	.
=142	=142	=142	=142
2F\	2f\	1c	2a/
2E\	2g\	.	2.g/
1C	2e\	1g	.
.	.	.	4f/
.	[2g\	.	4e/
.	.	.	4d/
=143	=143	=143	=143
2r	4g\]	2.c	1e
.	4f\	.	.
2.c\	4e\	.	.
.	4d\	4d\	.
.	1c	2e	2r
4B\	.	.	.
4A\	.	2c	[2cc\
4G\	.	.	.
=144	=144	=144	=144
2A\	0r	2f	2cc\]
2.G\	.	4g\	2b\
.	.	2d	.
.	.	.	2g/
4E\	.	4e\	.
2F\	.	2c	2a/
=145	=145	=145	=145
1G	2r	1B	2d/
.	2d\	.	1g
2C/	2e\	2c	.
2F\	2f\	2A	2a/
=146	=146	=146	=146
2E\	2g\	4e\	2b\
.	.	4d\	.
1A	2e\	4c\	1cc
.	.	4B\	.
.	2.f\	1A	.
4G\	.	.	4b\
4F\	4e\	.	4a/
=147	=147	=147	=147
2A\	2c\	0e	2cc\
2G\	2g\	.	2b\
2A\	2c\	.	2cc\
2G\	[2g\	.	2b\
=148	=148	=148	=148
1E	4g\]	4e\	1g
.	4f\	4d\	.
.	1e	2B	.
1F	.	1A	1a
.	2d\	.	.
=149	=149	=149	=149
2r	1e	2r	2r
2E\	.	2e	2g/
2F\	1d	2A	2a/
2G\	.	[2G	[2b\
=150	=150	=150	=150
2E\	1e	2G]	2b\]
2.A\	.	2A	2.cc\
.	2r	1e	.
4G\	.	.	4b\
2E\	2e\	.	2g/
=151	=151	=151	=151
2F\	2c\	0A	2a/
2D\	2.d\	.	2f/
2.F\	.	.	1a
.	4c\	.	.
.	2d\	.	.
4E\	.	.	.
=152	=152	=152	=152
1C	2e\	1c	2g/
.	1c	.	2e/
1D	.	1F	2.f/
.	2B\	.	.
.	.	.	4g/
=153	=153	=153	=153
1.C	2.c\	1G	2e/
.	.	.	1g
.	4d\	.	.
.	2e\	2c	.
2F\	2f\	2A	2a/
=154	=154	=154	=154
2G\	2r	2d	2b\
2A\	2e\	2c	2cc\
2D\	2f\	2.d	2a/
[2G\	[2g\	.	[2b\
.	.	4e\	.
=155	=155	=155	=155
2G\]	4g\]	2B	4b\]
.	4f\	.	4a/
2A\	1e	2c	1a
1B	.	1G	.
.	2d\	.	2g#i/
=156	=156	=156	=156
2A\	2f\	[0cl	2a/
2.c\	2.e\	.	2.A/
4B\	4d\	.	4B/
[2A\	[2c\	.	4c/
.	.	.	4d/
=157	=157	=157	=157
4A\]	4c\]	0c_	2e/
4G\	4B\	.	.
2F\	2A/	.	2f/
2E\	2G/	.	2g/
2F\	2A/	.	[2c/
=158	=158	=158	=158
[0C	2G/	0c_	4c/]
.	.	.	4d/
.	4g\	.	4e/
.	4f\	.	4f/
.	4e\	.	2g/
.	4d\	.	.
.	[2c\	.	[2a/
=159	=159	=159	=159
0C]	2c\]	0c_	4a/]
.	.	.	4g/
.	2A/	.	1f
.	1G	.	.
.	.	.	2e/
=160	=160	=160	=160
0Fl	0Fl	0c]	0fl
*	*	*rscale:1	*
!!LO:LB:i:g=z
!!LO:TX:rj:i:t=fine
=161||	=161||	=161||	=161||
*>D	*>D	*>D	*>D
*clefF4	*clefGv2	*clefGv2	*clefG2
*k[]	*k[]	*k[]	*k[]
*M2/1	*M2/1	*M2/1	*M2/1
*met(C|)	*met(C|)	*met(C|)	*met(C|)
!!!OMD: Benedictus
!!section: Benedictus
0r	0r	0r	1f
.	.	.	[1cc
=162	=162	=162	=162
0r	0r	0r	2cc\]
.	.	.	4b-i\
.	.	.	4cc\
.	.	.	2dd\
.	.	.	[2cc\
=163	=163	=163	=163
0r	1F	0r	2cc\]
.	.	.	4b-i\
.	.	.	4a/
.	[1c	.	1g
=164	=164	=164	=164
1C	2c\]	0r	0r
.	4B-i\	.	.
.	4c\	.	.
[1F	2d\	.	.
.	[2c\	.	.
=165	=165	=165	=165
2F\]	2c\]	0r	0r
4G\	4B-i\	.	.
4A\	4A/	.	.
1B-i	1G	.	.
=166	=166	=166	=166
2.A\	0r	0r	1c
4G\	.	.	.
2A\	.	.	[1f
[2B-i\	.	.	.
=167	=167	=167	=167
4B-\]	0r	0r	2f/]
4A\	.	.	.
4G\	.	.	4g/
4F\	.	.	4a/
1G	.	.	1b-i
=168	=168	=168	=168
0r	1F	0r	1a
.	[1c	.	2g/
.	.	.	[2cc\
=169	=169	=169	=169
0r	2c\]	0r	2cc\]
.	4d\	.	2b-i\
.	4e\	.	.
.	1f	.	1a
=170	=170	=170	=170
1C	1e	0r	1g
[1F	2c\	.	1r
.	[2f\	.	.
=171	=171	=171	=171
2F\]	2f\]	0r	0r
4G\	2e\	.	.
4A\	.	.	.
1B-i	1d	.	.
=172	=172	=172	=172
2.A\	1c	0r	1r
4G\	.	.	.
2A\	1r	.	1f
[2B-i\	.	.	.
=173	=173	=173	=173
4B-\]	0r	0r	1g
4A\	.	.	.
4G\	.	.	.
4F\	.	.	.
1G	.	.	1b-
=174	=174	=174	=174
0F	2r	0r	1a
.	2.f\	.	.
.	.	.	1f
.	4e\	.	.
.	2d\	.	.
=175	=175	=175	=175
0r	2c\	0r	2.g/
.	1B-i	.	.
.	.	.	4f/
.	.	.	4g/
.	.	.	4a/
.	4A/	.	[2b-i\
.	4G/	.	.
=176	=176	=176	=176
0r	2F/	0r	4b-\]
.	.	.	4a/
.	2A/	.	2f/
.	1G	.	2g/
.	.	.	2b-i\
=177	=177	=177	=177
2r	1F	0r	1a
2.c\	.	.	.
.	1c	.	1r
4B\	.	.	.
2A\	.	.	.
=178	=178	=178	=178
2G\	1d	0r	0r
1F	.	.	.
.	1f	.	.
4E\	.	.	.
4D\	.	.	.
=179	=179	=179	=179
2C/	2e\	0r	0r
2E\	2c\	.	.
1D	2d\	.	.
.	2f\	.	.
=180	=180	=180	=180
0C	1e	0r	2r
.	.	.	2.cc\
.	[1c	.	.
.	.	.	4b\
.	.	.	2a/
=181	=181	=181	=181
0r	2c\]	0r	2g/
.	2.d\	.	1f
.	4c\	.	.
.	2d\	.	4e/
.	.	.	4d/
=182	=182	=182	=182
0r	2e\	0r	2c/
.	1c	.	2e/
.	.	.	1d
.	2B\	.	.
=183	=183	=183	=183
1C	0c	0r	1r
[1F	.	.	1c
=184	=184	=184	=184
2F\]	0r	0r	1.f
2F\	.	.	.
[1F	.	.	.
.	.	.	2f/
=185	=185	=185	=185
2F\]	0r	0r	1.f
4E\	.	.	.
4D\	.	.	.
2F\	.	.	.
2G\	.	.	4e/
.	.	.	4d/
=186	=186	=186	=186
1.A	0r	0r	2f/
.	.	.	2g/
.	.	.	[1a
4G\	.	.	.
4F\	.	.	.
=187	=187	=187	=187
2A\	0r	0r	2a/]
2B\	.	.	4g/
.	.	.	4f/
1c	.	.	2a/
.	.	.	2b\
=188	=188	=188	=188
1F	1A	0r	2cc\
.	.	.	2c/
1r	1G	.	2d/
.	.	.	[2e/
=189	=189	=189	=189
0r	1A	0r	2e/]
.	.	.	4d/
.	.	.	4c/
.	1G	.	2d/
.	.	.	2e/
=190	=190	=190	=190
2r	1d	0r	1f
2D\	.	.	.
2E\	1c	.	1r
[2F\	.	.	.
=191	=191	=191	=191
2F\]	1d	0r	0r
4E\	.	.	.
4D\	.	.	.
2E\	1c	.	.
2F\	.	.	.
=192	=192	=192	=192
1G	2r	0r	0r
.	2B\	.	.
1F	2c\	.	.
.	[2d\	.	.
=193	=193	=193	=193
1G	2d\]	0r	0r
.	4c\	.	.
.	4B\	.	.
1F	2c\	.	.
.	2d\	.	.
=194	=194	=194	=194
1c	1e	0r	2r
.	.	.	2g/
1r	1d	.	2a/
.	.	.	[2b\
=195	=195	=195	=195
0r	1e	0r	2b\]
.	.	.	4a/
.	.	.	4g/
.	1d	.	2a/
.	.	.	2b\
=196	=196	=196	=196
0r	2c\	0r	1cc
.	2.f\	.	.
.	.	.	1f
.	4e\	.	.
.	4d\	.	.
.	4c\	.	.
=197	=197	=197	=197
0r	2B-i\	0r	1g
.	2c\	.	.
.	2A/	.	1a
.	[2f\	.	.
=198	=198	=198	=198
0r	4f\]	0r	1f
.	4e\	.	.
.	4d\	.	.
.	4c\	.	.
.	2B-i\	.	1g
.	2c\	.	.
=199	=199	=199	=199
2r	1F	0r	0a
2.c\	.	.	.
.	1c	.	.
4B\	.	.	.
4A\	.	.	.
4G\	.	.	.
=200	=200	=200	=200
2F\	1d	0r	0r
2G\	.	.	.
2E\	1e	.	.
[2c\	.	.	.
=201	=201	=201	=201
4c\]	1c	0r	0r
4B\	.	.	.
4A\	.	.	.
4G\	.	.	.
2F\	1d	.	.
2G\	.	.	.
=202	=202	=202	=202
1C	1e	0r	2r
.	.	.	2.cc\
1r	2r	.	.
.	.	.	4b\
.	2c\	.	4a/
.	.	.	4g/
=203	=203	=203	=203
1r	2d\	0r	2f/
.	2B\	.	2g/
2.C/	2.c\	.	2e/
.	.	.	[2cc\
4D\	4B\	.	.
=204	=204	=204	=204
2E\	2G/	0r	4cc\]
.	.	.	4b\
2F\	2F/	.	4a/
.	.	.	4g/
2D\	1B-i	.	2f/
2E\	.	.	2g/
=205	=205	=205	=205
0Fl	0Al	0r	0cl
!!LO:TX:i:Y=40:rj:t=Osanna ut supra
=||	=||	=||	=||
*-	*-	*-	*-
!!!RDF**kern: l=long note in original notation
!!!RDF**kern: i=editorial accidental
!!!ENC: Jesse Rodin; Victoria Chang 2011/04/13
!!!END: 2011/04/13/
!!!EED:	Jesse Rodin
!!!EEV: 2012/04/24/
!!attribution-level@Jos: 1 (secure)
!!!ONB:	Translated from MusicXML and edited on 2011/09/18/ by Craig Sapp
!!muse2ps: T^@{OPR}^u^@{ONM}{. }@{OTL}^C^@{COM}\n@{SCT}^i2I100v85,90,85,150c80Q16
